X: 40181
T: Time To Fly
R: reel
M: 4/4
K: Gmajor
|:GddG dddB|BAAd BAGF|GAAG AAGA|BGAB BAGF|
EcBG DEED|EBAG AGED|EB,CD EDEF|GEEG GAAB:|
|:dggf feed|dddB BABd|Bgfd ABBA|Bafd fgfd|
BcBG DEED|EBAG AGED|EB,CD EDEF|GEEG GAAB:|

